X:4010
T:Donkey Riding
R:Hornpipe
C:Trad. Shanty
O:England
M:2/4
L:1/16
Q:1/4=120
K:D
|:"D"D3E F2F2|"Em"G2E2 "D"F4|F2E2 "Em"E2DE|"D"F2E2 "Em"E4|"D"D3E F2F2|"Em"G2E2 "D"F4|F2E2 "A7"A2A2|"D"D4 D4:|
|:"Bm"B4"D"A2FF|"Em"G2A2 "D"F4|"D"F2E2 "Em"E2DE|"D"F2E2 "Em"E4|"Bm"B4"D"A2FF|"Em"G2A2 "D"F4|F2E2 A2 "A7"A2|"D"D4 D4:|
